X: 25193
T: Malarky, The
R: jig
M: 6/8
K: Bminor
|:dcB ~F3|Bdf edc|dcB ~F3|B,DF EFA|
dcB F3|Bdf edc|dcB FBd|cBA B3:|
|:~B3 ~b3|~B3 ~a3|~B3 ~g3|fgf edc|
~B3 bga|~B3 gef|~e3 efg|fdc B2A:|

